curriculum/images/exercise-icons/sprouting-flower.svg

<svg width="100" height="100" viewBox="0 0 100 100" fill="none" xmlns="http://www.w3.org/2000/svg">
<path d="M50 95.214C72.0914 95.214 90 77.3054 90 55.214C90 33.1226 72.0914 15.214 50 15.214C27.9086 15.214 10 33.1226 10 55.214C10 77.3054 27.9086 95.214 50 95.214Z" fill="#DAEDF7" stroke="#DAEDF7" stroke-miterlimit="10"/>
<path d="M51.3 91.789V95.181C52.51 95.143 53.7053 95.0517 54.886 94.907C56.664 88.829 58.45 81.707 58.516 77.446C58.603 71.909 63.024 63.346 63.024 63.346C54.109 69.142 51.3 91.789 51.3 91.789Z" fill="#9CEB60"/>
<path d="M47.564 95.133C48.37 95.182 49.181 95.214 50 95.214C50.385 95.214 50.766 95.196 51.148 95.185V42.537H47.564V95.133Z" fill="#6DD627"/>
<path d="M47.564 55.664C48.1896 55.7886 48.8261 55.8506 49.464 55.849C50.0281 55.8499 50.5912 55.8018 51.147 55.705V42.537H47.564V55.664Z" fill="#46B000"/>
<path d="M51.148 95.185V42.537H47.564V92.798" stroke="#45413C" stroke-linecap="round" stroke-linejoin="round"/>
<path d="M38.947 69.813C38.947 69.813 41.254 79.893 45.053 94.899C46.3197 95.055 47.6057 95.151 48.911 95.187C47.436 86.258 44.56 75.734 38.947 69.813Z" fill="#9CEB60"/>
<path d="M48.911 95.187C47.436 86.258 44.56 75.734 38.947 69.813C38.947 69.813 41.254 79.893 45.053 94.899" stroke="#45413C" stroke-linecap="round" stroke-linejoin="round"/>
<path d="M54.883 94.907C56.661 88.829 58.447 81.707 58.513 77.446C58.6 71.909 63.021 63.346 63.021 63.346C54.109 69.142 51.3 91.789 51.3 91.789" stroke="#45413C" stroke-linecap="round" stroke-linejoin="round"/>
<path d="M49.627 26.379C49.627 35.653 45.422 39.56 40.236 39.56C35.05 39.56 30.846 35.653 30.846 26.379C30.846 20.279 34.903 11.579 37.684 6.323C37.9293 5.85848 38.2966 5.46968 38.7465 5.19847C39.1964 4.92727 39.7117 4.78395 40.237 4.78395C40.7623 4.78395 41.2776 4.92727 41.7275 5.19847C42.1774 5.46968 42.5447 5.85848 42.79 6.323C45.571 11.578 49.627 20.284 49.627 26.379Z" fill="#FF6196" stroke="#45413C" stroke-linecap="round" stroke-linejoin="round"/>
<path d="M49.307 26.379C49.307 35.653 53.507 39.56 58.698 39.56C63.889 39.56 68.088 35.653 68.088 26.379C68.088 20.279 64.031 11.579 61.25 6.323C61.0047 5.85848 60.6374 5.46968 60.1875 5.19847C59.7376 4.92727 59.2223 4.78395 58.697 4.78395C58.1717 4.78395 57.6564 4.92727 57.2065 5.19847C56.7566 5.46968 56.3893 5.85848 56.144 6.323C53.363 11.578 49.307 20.284 49.307 26.379Z" fill="#FF6196" stroke="#45413C" stroke-linecap="round" stroke-linejoin="round"/>
<path d="M49.464 27.692C49.464 22.3139 51.6004 17.1562 55.4033 13.3533C59.2061 9.55043 64.3639 7.414 69.742 7.414C70.0811 7.41375 70.4146 7.50046 70.7106 7.66585C71.0067 7.83125 71.2553 8.06979 71.4329 8.3587C71.6105 8.6476 71.711 8.97722 71.7248 9.31604C71.7387 9.65486 71.6654 9.99157 71.512 10.294C70.2981 12.6871 69.6657 15.3327 69.666 18.016V30.782C69.6655 36.1461 67.5395 41.2915 63.7535 45.0916C59.9676 48.8916 54.8301 51.0366 49.466 51.057L49.464 27.692Z" fill="#FF87AF"/>
<path d="M49.464 43.462V51.057C54.8281 51.0366 59.9656 48.8916 63.7515 45.0916C67.5375 41.2915 69.6635 36.1461 69.664 30.782V29.791C67.8601 33.6924 65.0255 37.0275 61.4658 39.4366C57.9062 41.8458 53.7564 43.2376 49.464 43.462Z" fill="#FF6196"/>
<path d="M49.464 27.692C49.464 22.3139 51.6004 17.1562 55.4033 13.3533C59.2061 9.55043 64.3639 7.414 69.742 7.414C70.0811 7.41375 70.4146 7.50046 70.7106 7.66585C71.0067 7.83125 71.2553 8.06979 71.4329 8.3587C71.6105 8.6476 71.711 8.97722 71.7248 9.31604C71.7387 9.65486 71.6654 9.99157 71.512 10.294C70.2981 12.6871 69.6657 15.3327 69.666 18.016V30.782C69.6655 36.1461 67.5395 41.2915 63.7535 45.0916C59.9676 48.8916 54.8301 51.0366 49.466 51.057L49.464 27.692Z" stroke="#45413C" stroke-linecap="round" stroke-linejoin="round"/>
<path d="M49.469 27.692C49.4691 25.029 48.9447 22.3921 47.9257 19.9318C46.9067 17.4715 45.413 15.236 43.53 13.353C41.647 11.47 39.4115 9.97632 36.9512 8.9573C34.4909 7.93829 31.854 7.41387 29.191 7.414C28.852 7.41392 28.5186 7.50076 28.2227 7.66622C27.9268 7.83168 27.6783 8.07025 27.5008 8.35912C27.3234 8.648 27.223 8.97755 27.2092 9.31629C27.1954 9.65503 27.2686 9.99165 27.422 10.294C28.6358 12.6871 29.2683 15.3327 29.268 18.016V30.782C29.2685 36.1461 31.3945 41.2915 35.1804 45.0916C38.9664 48.8916 44.1039 51.0366 49.468 51.057L49.469 27.692Z" fill="#FF87AF"/>
<path d="M49.469 43.462V51.057C44.1049 51.0366 38.9674 48.8916 35.1815 45.0916C31.3955 41.2915 29.2695 36.1461 29.269 30.782V29.791C31.0729 33.6924 33.9075 37.0275 37.4671 39.4366C41.0268 41.8458 45.1766 43.2376 49.469 43.462Z" fill="#FF6196"/>
<path d="M49.469 27.692C49.4691 25.029 48.9447 22.3921 47.9257 19.9318C46.9067 17.4715 45.413 15.236 43.53 13.353C41.647 11.47 39.4115 9.97632 36.9512 8.9573C34.4909 7.93829 31.854 7.41387 29.191 7.414C28.852 7.41392 28.5186 7.50076 28.2227 7.66622C27.9268 7.83168 27.6783 8.07025 27.5008 8.35912C27.3234 8.648 27.223 8.97755 27.2092 9.31629C27.1954 9.65503 27.2686 9.99165 27.422 10.294C28.6358 12.6871 29.2683 15.3327 29.268 18.016V30.782C29.2685 36.1461 31.3945 41.2915 35.1804 45.0916C38.9664 48.8916 44.1039 51.0366 49.468 51.057L49.469 27.692Z" stroke="#45413C" stroke-linecap="round" stroke-linejoin="round"/>
<path d="M61.461 34.217C61.461 46.066 56.09 51.057 49.461 51.057C42.832 51.057 37.461 46.066 37.461 34.217C37.461 26.429 42.644 13.459 46.197 6.75C46.5105 6.15679 46.9799 5.66033 47.5546 5.31404C48.1293 4.96775 48.7875 4.78476 49.4585 4.78476C50.1295 4.78476 50.7877 4.96775 51.3624 5.31404C51.9371 5.66033 52.4065 6.15679 52.72 6.75C56.279 13.463 61.461 26.43 61.461 34.217Z" fill="#FF87AF"/>
<path d="M37.589 32C37.5113 32.7375 37.4709 33.4784 37.468 34.22C37.468 46.069 42.839 51.06 49.468 51.06C56.097 51.06 61.468 46.069 61.468 34.22C61.4627 33.4783 61.42 32.7374 61.34 32C60.552 41.842 55.54 46.061 49.464 46.061C43.388 46.061 38.377 41.839 37.589 32Z" fill="#FF6196"/>
<path d="M61.461 34.217C61.461 46.066 56.09 51.057 49.461 51.057C42.832 51.057 37.461 46.066 37.461 34.217C37.461 26.429 42.644 13.459 46.197 6.75C46.5105 6.15679 46.9799 5.66033 47.5546 5.31404C48.1293 4.96775 48.7875 4.78476 49.4585 4.78476C50.1295 4.78476 50.7877 4.96775 51.3624 5.31404C51.9371 5.66033 52.4065 6.15679 52.72 6.75C56.279 13.463 61.461 26.43 61.461 34.217Z" stroke="#45413C" stroke-linecap="round" stroke-linejoin="round"/>
</svg>

<svg xmlns="http://www.w3.org/2000/svg" width="100" height="100" fill="none" viewBox="0 0 100 100"><path fill="#daedf7" stroke="#daedf7" stroke-miterlimit="10" d="M50 95.214c22.091 0 40-17.909 40-40s-17.909-40-40-40-40 17.909-40 40 17.909 40 40 40Z"/><path fill="#9ceb60" d="M51.3 91.789v3.392q1.815-.057 3.586-.274c1.778-6.078 3.564-13.2 3.63-17.461.087-5.537 4.508-14.1 4.508-14.1C54.109 69.142 51.3 91.789 51.3 91.789"/><path fill="#6dd627" d="M47.564 95.133a40 40 0 0 0 2.436.081c.385 0 .766-.018 1.148-.029V42.537h-3.584z"/><path fill="#46b000" d="M47.564 55.664a9.6 9.6 0 0 0 1.9.185q.848 0 1.683-.144V42.537h-3.583z"/><path stroke="#45413c" stroke-linecap="round" stroke-linejoin="round" d="M51.148 95.185V42.537h-3.584v50.261"/><path fill="#9ceb60" d="M38.947 69.813s2.307 10.08 6.106 25.086q1.9.234 3.858.288c-1.475-8.929-4.351-19.453-9.964-25.374"/><path stroke="#45413c" stroke-linecap="round" stroke-linejoin="round" d="M48.911 95.187c-1.475-8.929-4.351-19.453-9.964-25.374 0 0 2.307 10.08 6.106 25.086M54.883 94.907c1.778-6.078 3.564-13.2 3.63-17.461.087-5.537 4.508-14.1 4.508-14.1C54.109 69.142 51.3 91.789 51.3 91.789"/><path fill="#ff6196" stroke="#45413c" stroke-linecap="round" stroke-linejoin="round" d="M49.627 26.379c0 9.274-4.205 13.181-9.391 13.181s-9.39-3.907-9.39-13.181c0-6.1 4.057-14.8 6.838-20.056a2.887 2.887 0 0 1 5.106 0c2.781 5.255 6.837 13.961 6.837 20.056"/><path fill="#ff6196" stroke="#45413c" stroke-linecap="round" stroke-linejoin="round" d="M49.307 26.379c0 9.274 4.2 13.181 9.391 13.181s9.39-3.907 9.39-13.181c0-6.1-4.057-14.8-6.838-20.056a2.887 2.887 0 0 0-5.106 0c-2.781 5.255-6.837 13.961-6.837 20.056"/><path fill="#ff87af" d="M49.464 27.692A20.28 20.28 0 0 1 69.742 7.414a1.983 1.983 0 0 1 1.77 2.88 17.1 17.1 0 0 0-1.846 7.722v12.766a20.277 20.277 0 0 1-20.2 20.275z"/><path fill="#ff6196" d="M49.464 43.462v7.595a20.277 20.277 0 0 0 20.2-20.275v-.991a23.61 23.61 0 0 1-20.2 13.671"/><path stroke="#45413c" stroke-linecap="round" stroke-linejoin="round" d="M49.464 27.692A20.28 20.28 0 0 1 69.742 7.414a1.983 1.983 0 0 1 1.77 2.88 17.1 17.1 0 0 0-1.846 7.722v12.766a20.277 20.277 0 0 1-20.2 20.275z"/><path fill="#ff87af" d="M49.469 27.692A20.28 20.28 0 0 0 29.191 7.414a1.983 1.983 0 0 0-1.769 2.88 17.1 17.1 0 0 1 1.846 7.722v12.766a20.28 20.28 0 0 0 20.2 20.275z"/><path fill="#ff6196" d="M49.469 43.462v7.595a20.277 20.277 0 0 1-20.2-20.275v-.991a23.61 23.61 0 0 0 20.2 13.671"/><path stroke="#45413c" stroke-linecap="round" stroke-linejoin="round" d="M49.469 27.692A20.28 20.28 0 0 0 29.191 7.414a1.983 1.983 0 0 0-1.769 2.88 17.1 17.1 0 0 1 1.846 7.722v12.766a20.28 20.28 0 0 0 20.2 20.275z"/><path fill="#ff87af" d="M61.461 34.217c0 11.849-5.371 16.84-12 16.84s-12-4.991-12-16.84c0-7.788 5.183-20.758 8.736-27.467a3.689 3.689 0 0 1 6.523 0c3.559 6.713 8.741 19.68 8.741 27.467"/><path fill="#ff6196" d="M37.589 32a22 22 0 0 0-.121 2.22c0 11.849 5.371 16.84 12 16.84s12-4.991 12-16.84A22 22 0 0 0 61.34 32c-.788 9.842-5.8 14.061-11.876 14.061S38.377 41.839 37.589 32"/><path stroke="#45413c" stroke-linecap="round" stroke-linejoin="round" d="M61.461 34.217c0 11.849-5.371 16.84-12 16.84s-12-4.991-12-16.84c0-7.788 5.183-20.758 8.736-27.467a3.689 3.689 0 0 1 6.523 0c3.559 6.713 8.741 19.68 8.741 27.467"/></svg>
